icons/motoko.svg

<svg width="16" height="16" viewBox="0 0 16 16" fill="none" xmlns="http://www.w3.org/2000/svg">
<path fill-rule="evenodd" clip-rule="evenodd" d="M2.09549 8.98331C2.54045 11.1946 4.48542 12.6474 6.76593 13C10 13.5 15.6169 11.8954 13.1791 10.5376C13.0877 10.4606 12.8583 10.359 12.6082 10.2481C12.0836 10.0156 11.4676 9.7425 11.8393 9.57111C16.0961 8.58593 14.3515 7.83776 13.0585 7.28322C12.6903 7.12532 12.3587 6.98312 12.2127 6.85562C11.9853 6.65708 12.413 6.64228 13.0071 6.62171C13.5836 6.60175 14.3169 6.57636 14.7604 6.37235C16.0123 5.79648 12 2.5 6.76593 3.01251C5.22666 3.16323 3.92461 3.83862 3.07246 4.88338C3.50841 4.74411 3.99154 4.66666 4.5 4.66666C6.433 4.66666 8 5.78595 8 7.16666C8 8.54738 6.433 9.66666 4.5 9.66666C3.56881 9.66666 2.72254 9.40691 2.09549 8.98331Z" fill="#2CADEF"/>
<path fill-rule="evenodd" clip-rule="evenodd" d="M2.04486 8.94842C2.27838 11.2563 3.488 13 7.15563 13C10.1255 13 12.8577 11.2824 10.2205 9.92296C9.61861 9.68486 8.60194 9.03298 8.81873 8.40222C8.90572 8.14913 9.23738 7.75446 9.6269 7.29094C11.0459 5.60234 13.2328 3 7.15563 3C4.82973 3 3.44564 3.79392 2.70651 5.01939C3.23102 4.79539 3.84446 4.66666 4.5 4.66666C6.433 4.66666 8 5.78595 8 7.16666C8 8.54738 6.433 9.66666 4.5 9.66666C3.5435 9.66666 2.67662 9.3926 2.04486 8.94842Z" fill="url(#paint0_linear_922_2)"/>
<circle cx="5" cy="7" r="1" fill="#B72DB8"/>
<ellipse cx="2.5" cy="7" rx="0.5" ry="1" fill="#B72DB8"/>
<defs>
<linearGradient id="paint0_linear_922_2" x1="6.66529" y1="3" x2="6.66529" y2="13" gradientUnits="userSpaceOnUse">
<stop stop-color="#7126EC"/>
<stop offset="1" stop-color="#E93894"/>
</linearGradient>
</defs>
</svg>

<svg xmlns="http://www.w3.org/2000/svg" width="16" height="16" fill="none"><path fill="#2CADEF" fill-rule="evenodd" d="M2.095 8.983c.445 2.212 2.39 3.664 4.67 4.017 3.235.5 8.852-1.105 6.414-2.462-.091-.077-.32-.179-.57-.29-.525-.232-1.141-.505-.77-.677 4.257-.985 2.512-1.733 1.22-2.288-.369-.158-.7-.3-.846-.427-.228-.199.2-.214.794-.234.577-.02 1.31-.046 1.753-.25C16.012 5.796 12 2.5 6.766 3.012c-1.54.151-2.841.827-3.694 1.871.436-.139.92-.216 1.428-.216 1.933 0 3.5 1.119 3.5 2.5 0 1.38-1.567 2.5-3.5 2.5-.931 0-1.777-.26-2.405-.684Z" clip-rule="evenodd"/><path fill="url(#a)" fill-rule="evenodd" d="M2.045 8.948C2.278 11.256 3.488 13 7.155 13c2.97 0 5.703-1.718 3.065-3.077-.601-.238-1.618-.89-1.401-1.52.087-.254.418-.649.808-1.112C11.046 5.602 13.233 3 7.156 3c-2.326 0-3.71.794-4.45 2.02A4.585 4.585 0 0 1 4.5 4.666c1.933 0 3.5 1.119 3.5 2.5 0 1.38-1.567 2.5-3.5 2.5-.957 0-1.823-.274-2.455-.719Z" clip-rule="evenodd"/><circle cx="5" cy="7" r="1" fill="#B72DB8"/><ellipse cx="2.5" cy="7" fill="#B72DB8" rx=".5" ry="1"/><defs><linearGradient id="a" x1="6.665" x2="6.665" y1="3" y2="13" gradientUnits="userSpaceOnUse"><stop stop-color="#7126EC"/><stop offset="1" stop-color="#E93894"/></linearGradient></defs></svg>
